svgs/sharp-light/folder-tree.svg

<svg xmlns="http://www.w3.org/2000/svg" viewBox="0 0 576 512"><!--! Font Awesome Pro 6.4.0 by @fontawesome - https://fontawesome.com License - https://fontawesome.com/license (Commercial License) Copyright 2023 Fonticons, Inc. --><path d="M0 0V112 400v16H16 256V384H32V128H256V96H32V0H0zM426.7 64H440 544V192H320V32h74.7l22.6 22.6 9.4 9.4zM544 32H440L408 0H320 288V32 192v32h32H544h32V192 64 32H544zM426.7 352H440 544V480H320V320h74.7l22.6 22.6 9.4 9.4zM544 320H440l-32-32H320 288v32V480v32h32H544h32V480 352 320H544z"/></svg>

<svg xmlns="http://www.w3.org/2000/svg" viewBox="0 0 576 512"><!--! Font Awesome Pro 6.6.0 by @fontawesome - https://fontawesome.com License - https://fontawesome.com/license (Commercial License) Copyright 2024 Fonticons, Inc. --><path d="M0 0L0 112 0 400l0 16 16 0 240 0 0-32L32 384l0-256 224 0 0-32L32 96 32 0 0 0zM426.7 64L440 64l104 0 0 128-224 0 0-160 74.7 0 22.6 22.6 9.4 9.4zM544 32L440 32 408 0 320 0 288 0l0 32 0 160 0 32 32 0 224 0 32 0 0-32 0-128 0-32-32 0zM426.7 352l13.3 0 104 0 0 128-224 0 0-160 74.7 0 22.6 22.6 9.4 9.4zM544 320l-104 0-32-32-88 0-32 0 0 32 0 160 0 32 32 0 224 0 32 0 0-32 0-128 0-32-32 0z"/></svg>
